X: 1
T: Humours Of Tralibane, The
M: 6/8
L: 1/8
R: jig
K: Amix
|:ecA Ace|dBG GBd|cBA ecA|def ~g3|
ecA Ace|dBG GBd|cBA edB|BAA ~A3:|
efg efg|~f3 ged|efg efg|agf ~e3|
efg efg|fed Bcd|gfe edB|BAA ~A3:|
